src/assets/contato/message-icon.svg

<svg width="23" height="23" viewBox="0 0 23 23" fill="none" xmlns="http://www.w3.org/2000/svg">
<g clip-path="url(#clip0_200_22)">
<path fill-rule="evenodd" clip-rule="evenodd" d="M6.56048 17.8447C6.46666 17.2571 6.19735 16.7252 5.80574 16.3003C4.00889 14.8953 2.875 12.8363 2.875 10.5418C2.875 6.30765 6.73655 2.87516 11.5 2.87516C16.2635 2.87516 20.125 6.30765 20.125 10.5418C20.125 14.776 16.2635 18.2085 11.5 18.2085C10.6898 18.2085 9.90581 18.1092 9.16238 17.9236C9.05998 17.898 8.95263 17.9402 8.89453 18.0282C8.77697 18.2066 8.64734 18.3859 8.50731 18.5606C8.28704 18.8354 8.04104 19.0987 7.77584 19.3283C7.27896 19.7585 6.71468 20.0705 6.12598 20.1186C6.10618 20.1203 6.08635 20.1216 6.06649 20.1227C6.02663 20.1247 6.00394 20.0791 6.02747 20.0468C6.03855 20.0316 6.04948 20.0164 6.06027 20.001C6.39921 19.518 6.59714 18.9355 6.59714 18.3085C6.59714 18.2962 6.59706 18.2838 6.59691 18.2716C6.59511 18.1267 6.58273 17.9841 6.56048 17.8447ZM4.46797 17.6848C2.35379 15.964 0.958336 13.4267 0.958336 10.5418C0.958336 5.04311 5.89646 0.958496 11.5 0.958496C17.1036 0.958496 22.0417 5.04311 22.0417 10.5418C22.0417 16.0406 17.1036 20.1252 11.5 20.1252C10.9229 20.1252 10.3555 20.0829 9.80145 20.0014C9.52206 20.3249 9.20732 20.6391 8.85998 20.92C8.19874 21.4547 7.2784 21.9798 6.16439 22.0368C4.36175 22.1289 3.59536 20.128 4.47927 18.9169C4.6099 18.7379 4.68047 18.5308 4.68047 18.3085C4.68047 18.0824 4.60682 17.8682 4.46797 17.6848Z" fill="#383D43"/>
</g>
<defs>
<clipPath id="clip0_200_22">
<rect width="23" height="23" fill="white"/>
</clipPath>
</defs>
</svg>

<svg xmlns="http://www.w3.org/2000/svg" width="23" height="23" fill="none"><g clip-path="url(#a)"><path fill="#383D43" fill-rule="evenodd" d="M6.56 17.845a2.969 2.969 0 0 0-.754-1.545c-1.797-1.405-2.931-3.464-2.931-5.758 0-4.234 3.862-7.667 8.625-7.667 4.764 0 8.625 3.433 8.625 7.667s-3.861 7.667-8.625 7.667c-.81 0-1.594-.1-2.338-.285a.249.249 0 0 0-.267.104 7.102 7.102 0 0 1-.388.533c-.22.274-.466.538-.731.767-.497.43-1.061.742-1.65.79l-.06.005c-.04.002-.062-.044-.039-.076.012-.015.022-.03.033-.046a2.935 2.935 0 0 0 .5-2.156Zm-2.092-.16c-2.114-1.721-3.51-4.258-3.51-7.143C.958 5.043 5.896.958 11.5.958s10.542 4.085 10.542 9.584-4.938 9.583-10.542 9.583c-.577 0-1.145-.042-1.699-.124-.279.324-.594.638-.941.919-.661.535-1.582 1.06-2.696 1.117-1.802.092-2.569-1.909-1.685-3.12a1.02 1.02 0 0 0-.011-1.232Z" clip-rule="evenodd"/></g><defs><clipPath id="a"><path fill="#fff" d="M0 0h23v23H0z"/></clipPath></defs></svg>
